packages/icons/src/shield-check-fill.svg

<svg xmlns="http://www.w3.org/2000/svg" width="24" height="24" fill="none" viewBox="0 0 24 24">
  <path fill="#000" d="M12 2C8 2 4 4 4 4v10.09C4 18 8.81 21 12 22c3.17-1 8-4 8-7.91V4s-4-2-8-2Zm-1.06 13.54L7.4 12l1.41-1.41 2.12 2.12 4.24-4.24 1.41 1.41-5.64 5.66Z"/>
</svg>

<svg width="24" height="24" viewBox="0 0 24 24" fill="none" xmlns="http://www.w3.org/2000/svg">
<path d="M12 2C8 2 4 4 4 4V14.09C4 18 8.81 21 12 22C15.17 21 20 18 20 14.09V4C20 4 16 2 12 2ZM10.94 15.54L7.4 12L8.81 10.59L10.93 12.71L15.17 8.47L16.58 9.88L10.94 15.54Z" fill="black"/>
</svg>
